alura/assets/api/cursos/agentes-ia-openclaw.svg

<svg width="120" height="120" viewBox="0 0 120 120" fill="none" xmlns="http://www.w3.org/2000/svg">
<path d="M60 10C30 10 15 35 15 55C15 75 30 95 45 100V110H55V100C55 100 60 102 65 100V110H75V100C90 95 105 75 105 55C105 35 90 10 60 10Z" fill="#DC5E82"/>
<path d="M60 10C30 10 15 35 15 55C15 75 30 95 45 100V110H55V100C55 100 60 102 65 100V110H75V100C90 95 105 75 105 55C105 35 90 10 60 10Z" fill="url(#paint0_linear_1643_12)"/>
<path d="M20 45C5 40 0 50 5 60C10 70 20 65 25 55C28 48 25 45 20 45Z" fill="url(#paint1_linear_1643_12)"/>
<path d="M99.9999 45C115 40 120 50 115 60C110 70 99.9999 65 94.9999 55C91.9999 48 94.9999 45 99.9999 45Z" fill="url(#paint2_linear_1643_12)"/>
<path d="M45 15C38.3333 8.33338 33.3333 6.00005 30 8.00005" stroke="#FF4D4D" stroke-width="3" stroke-linecap="round"/>
<path d="M75 15C81.6667 8.33338 86.6667 6.00005 90 8.00005" stroke="#FF4D4D" stroke-width="3" stroke-linecap="round"/>
<path d="M45 41C48.3137 41 51 38.3137 51 35C51 31.6863 48.3137 29 45 29C41.6863 29 39 31.6863 39 35C39 38.3137 41.6863 41 45 41Z" fill="#050810"/>
<path d="M75 41C78.3137 41 81 38.3137 81 35C81 31.6863 78.3137 29 75 29C71.6863 29 69 31.6863 69 35C69 38.3137 71.6863 41 75 41Z" fill="#050810"/>
<path d="M46 36.5C47.3807 36.5 48.5 35.3807 48.5 34C48.5 32.6193 47.3807 31.5 46 31.5C44.6193 31.5 43.5 32.6193 43.5 34C43.5 35.3807 44.6193 36.5 46 36.5Z" fill="#00E5CC"/>
<path d="M76 36.5C77.3807 36.5 78.5 35.3807 78.5 34C78.5 32.6193 77.3807 31.5 76 31.5C74.6193 31.5 73.5 32.6193 73.5 34C73.5 35.3807 74.6193 36.5 76 36.5Z" fill="#00E5CC"/>
<defs>
<linearGradient id="paint0_linear_1643_12" x1="15" y1="10" x2="114.448" y2="99.5028" gradientUnits="userSpaceOnUse">
<stop stop-color="#FF4D4D"/>
<stop offset="1" stop-color="#991B1B"/>
</linearGradient>
<linearGradient id="paint1_linear_1643_12" x1="3.125" y1="43.67" x2="24.8697" y2="66.7038" gradientUnits="userSpaceOnUse">
<stop stop-color="#FF4D4D"/>
<stop offset="1" stop-color="#991B1B"/>
</linearGradient>
<linearGradient id="paint2_linear_1643_12" x1="93.803" y1="43.67" x2="115.548" y2="66.7038" gradientUnits="userSpaceOnUse">
<stop stop-color="#FF4D4D"/>
<stop offset="1" stop-color="#991B1B"/>
</linearGradient>
</defs>
</svg>

<svg xmlns="http://www.w3.org/2000/svg" fill="none" viewBox="0 0 120 120"><path fill="#DC5E82" d="M60 10c-30 0-45 25-45 45s15 40 30 45v10h10v-10s5 2 10 0v10h10v-10c15-5 30-25 30-45S90 10 60 10z"/><path fill="url(#paint0_linear_1643_12)" d="M60 10c-30 0-45 25-45 45s15 40 30 45v10h10v-10s5 2 10 0v10h10v-10c15-5 30-25 30-45S90 10 60 10z"/><path fill="url(#paint1_linear_1643_12)" d="M20 45C5 40 0 50 5 60s15 5 20-5c3-7 0-10-5-10z"/><path fill="url(#paint2_linear_1643_12)" d="M100 45c15-5 20 5 15 15s-15 5-20-5c-3-7 0-10 5-10z"/><path stroke="#FF4D4D" stroke-linecap="round" stroke-width="3" d="M45 15c-6.667-6.667-11.667-9-15-7m45 7c6.667-6.667 11.667-9 15-7"/><path fill="#050810" d="M45 41a6 6 0 100-12 6 6 0 000 12zm30 0a6 6 0 100-12 6 6 0 000 12z"/><path fill="#00E5CC" d="M46 36.5a2.5 2.5 0 100-5 2.5 2.5 0 000 5zm30 0a2.5 2.5 0 100-5 2.5 2.5 0 000 5z"/><defs><linearGradient id="paint0_linear_1643_12" x1="15" x2="114.448" y1="10" y2="99.503" gradientUnits="userSpaceOnUse"><stop stop-color="#FF4D4D"/><stop offset="1" stop-color="#991B1B"/></linearGradient><linearGradient id="paint1_linear_1643_12" x1="3.125" x2="24.87" y1="43.67" y2="66.704" gradientUnits="userSpaceOnUse"><stop stop-color="#FF4D4D"/><stop offset="1" stop-color="#991B1B"/></linearGradient><linearGradient id="paint2_linear_1643_12" x1="93.803" x2="115.548" y1="43.67" y2="66.704" gradientUnits="userSpaceOnUse"><stop stop-color="#FF4D4D"/><stop offset="1" stop-color="#991B1B"/></linearGradient></defs></svg>
